Numix-GalliumOS/22/status/renamed-brasero.svg

<?xml version="1.0" encoding="UTF-8" standalone="no"?>
<svg
   xmlns:dc="http://purl.org/dc/elements/1.1/"
   xmlns:cc="http://creativecommons.org/ns#"
   xmlns:rdf="http://www.w3.org/1999/02/22-rdf-syntax-ns#"
   xmlns:svg="http://www.w3.org/2000/svg"
   xmlns="http://www.w3.org/2000/svg"
   xmlns:sodipodi="http://sodipodi.sourceforge.net/DTD/sodipodi-0.dtd"
   xmlns:inkscape="http://www.inkscape.org/namespaces/inkscape"
   width="22"
   viewBox="0 0 6.208889 6.208889"
   height="22"
   id="svg2"
   version="1.1"
   inkscape:version="0.91 r"
   sodipodi:docname="brasero.svg">
  <metadata
     id="metadata399">
    <rdf:RDF>
      <cc:Work
         rdf:about="">
        <dc:format>image/svg+xml</dc:format>
        <dc:type
           rdf:resource="http://purl.org/dc/dcmitype/StillImage" />
        <dc:title />
      </cc:Work>
    </rdf:RDF>
  </metadata>
  <sodipodi:namedview
     pagecolor="#ffffff"
     bordercolor="#666666"
     borderopacity="1"
     objecttolerance="10"
     gridtolerance="10"
     guidetolerance="10"
     inkscape:pageopacity="0"
     inkscape:pageshadow="2"
     inkscape:window-width="1280"
     inkscape:window-height="998"
     id="namedview397"
     showgrid="true"
     inkscape:zoom="28.605683"
     inkscape:cx="10.733786"
     inkscape:cy="9.412957"
     inkscape:window-x="0"
     inkscape:window-y="0"
     inkscape:window-maximized="1"
     inkscape:current-layer="svg2"
     inkscape:object-paths="true"
     inkscape:snap-intersection-paths="true"
     inkscape:object-nodes="true"
     inkscape:snap-smooth-nodes="true"
     inkscape:snap-midpoints="true"
     inkscape:snap-object-midpoints="true"
     inkscape:snap-center="true">
    <inkscape:grid
       type="xygrid"
       id="grid3000" />
  </sodipodi:namedview>
  <defs
     id="defs4" />
  <path
     style="fill:#ececec;fill-opacity:1"
     d="M 11 3 C 6.5822363 3 3 6.5822363 3 11 C 3 14.162718 4.8358504 16.889069 7.5 18.1875 C 7.6268643 18.24933 7.7444887 18.319792 7.875 18.375 C 8.0917934 18.470291 8.3223158 18.55031 8.5625 18.625 C 8.5812273 18.630979 8.6062131 18.619156 8.625 18.625 C 8.7995569 18.67766 8.9695737 18.739944 9.15625 18.78125 C 9.231273 18.798897 9.2991794 18.828232 9.375 18.84375 C 9.5118049 18.869969 9.6382804 18.886142 9.78125 18.90625 C 10.005185 18.940474 10.239114 18.953507 10.46875 18.96875 C 10.705485 18.98469 10.967254 19 11.21875 19 L 11.5 19 C 11.605085 19 11.707671 18.974966 11.8125 18.96875 C 12.08859 18.952379 12.354688 18.899901 12.625 18.84375 C 13.057653 18.753876 13.476491 18.613168 13.875 18.4375 C 13.953996 18.407017 14.047237 18.407895 14.125 18.375 C 14.157245 18.359285 14.186859 18.328704 14.21875 18.3125 C 17.034521 17.073798 19 14.273162 19 11 C 19 6.5822363 15.417763 3 11 3 z M 11 4 C 14.865542 4 18 7.1344568 18 11 C 18 13.112086 17.041985 14.997715 15.5625 16.28125 C 15.46304 16.302433 15.360114 16.34371 15.25 16.34375 C 17.095992 14.819683 17.489223 12.533532 15.84375 10.34375 C 15.96541 11.771628 15.173508 12.512692 14.5 13 C 15.554456 10.988883 15.569785 8.705903 13.5 6.6875 C 13.665026 7.1820939 13.800896 7.5793076 13.6875 8.03125 C 13.796729 7.4979809 12.26256 5.0911779 10.03125 4.0625 C 10.347781 4.0186831 10.671429 4 11 4 z M 9.875 4.09375 C 11.370761 6.6497068 9.9351093 7.1453916 9.625 9.21875 C 9.7797114 9.0990606 9.9110812 8.9834587 10.09375 8.90625 C 10.367247 8.7906496 10.684211 8.71875 11 8.71875 C 11.31579 8.71875 11.632756 8.7906461 11.90625 8.90625 C 12.179747 9.0218504 12.418233 9.1682328 12.625 9.375 C 12.831766 9.5817661 12.978148 9.8202538 13.09375 10.09375 C 13.20935 10.367247 13.28125 10.684211 13.28125 11 C 13.28125 11.31579 13.209354 11.632753 13.09375 11.90625 C 12.97815 12.179747 12.831767 12.418233 12.625 12.625 C 12.418234 12.831766 12.179748 12.978149 11.90625 13.09375 C 11.632753 13.20935 11.315791 13.28125 11 13.28125 C 10.68421 13.28125 10.367246 13.209354 10.09375 13.09375 C 9.8202542 12.978147 9.5817654 12.831767 9.375 12.625 C 9.1682328 12.418233 9.0218522 12.179746 8.90625 11.90625 C 8.7906493 11.632753 8.71875 11.315789 8.71875 11 C 8.71875 10.68421 8.7906461 10.367246 8.90625 10.09375 C 8.9538047 9.9812535 9.0295594 9.9149264 9.09375 9.8125 C 8.8778343 9.4924745 8.5802421 9.235308 7.9375 9.09375 C 9.4613088 11.760416 6.1203464 11.459836 6.4375 13.78125 C 6.0276804 13.667898 5.6582837 12.912543 5.96875 11.96875 C 4.8963809 13.293495 5.3005908 14.419644 6.0625 15.5625 C 5.3005947 14.800597 5.2872005 15.196436 4.90625 14.125 C 4.9143188 14.277693 4.9488442 14.414287 4.96875 14.5625 C 4.3509021 13.51914 4 12.300278 4 11 C 4 7.5181119 6.545154 4.6328625 9.875 4.09375 z M 11 9.84375 C 10.684211 9.84375 10.394266 9.9807339 10.1875 10.1875 C 9.9807409 10.394267 9.84375 10.68421 9.84375 11 C 9.84375 11.315789 9.9807339 11.605734 10.1875 11.8125 C 10.394267 12.019266 10.68421 12.15625 11 12.15625 C 11.315791 12.15625 11.605734 12.019266 11.8125 11.8125 C 12.019259 11.605733 12.15625 11.31579 12.15625 11 C 12.15625 10.684211 12.019266 10.394266 11.8125 10.1875 C 11.605734 9.9807339 11.31579 9.84375 11 9.84375 z "
     id="path391-8"
     transform="scale(0.28222223,0.28222223)" />
  <path
     inkscape:connector-curvature="0"
     id="path3806"
     d="m 3.1044444,2.7819043 c 0.089123,0 0.1701116,0.03572 0.2284655,0.094074 0.058354,0.058354 0.094074,0.1393428 0.094074,0.2284655 0,0.089123 -0.035722,0.1701114 -0.094074,0.2284656 -0.058354,0.058354 -0.1393424,0.094074 -0.2284655,0.094074 -0.089123,0 -0.1701111,-0.03572 -0.2284654,-0.094074 C 2.817625,3.2745554 2.781905,3.1935666 2.781905,3.1044438 c 0,-0.089123 0.035722,-0.1701113 0.094074,-0.2284655 0.058354,-0.058354 0.1393428,-0.094074 0.2284654,-0.094074 z"
     style="opacity:0;fill:#ececec;fill-opacity:1;fill-rule:nonzero;stroke:none" />
  <path
     id="path3808"
     d="m 2.7583863,1.1154499 c 0.4696265,0.7646333 0.045781,0.8869191 -0.043677,1.4850259 0.043663,-0.033779 0.086198,-0.068924 0.1377512,-0.090714 0.077187,-0.032625 0.1628613,-0.050397 0.2519839,-0.050397 0.089123,0 0.1747977,0.017771 0.2519839,0.050397 0.077187,0.032625 0.1465931,0.079397 0.2049474,0.1377513 0.058354,0.058354 0.1051257,0.1277603 0.1377512,0.204947 0.032625,0.077187 0.050397,0.1628613 0.050397,0.251984 0,0.089123 -0.017771,0.1747973 -0.050397,0.2519841 -0.032625,0.077187 -0.079397,0.1465928 -0.1377512,0.204947 -0.058354,0.058354 -0.1277603,0.105126 -0.2049474,0.1377513 -0.077187,0.032625 -0.1628608,0.050397 -0.2519839,0.050397 -0.089123,0 -0.1747972,-0.017771 -0.2519839,-0.050397 C 2.7752739,3.6665009 2.7058674,3.6197291 2.6475136,3.5613749 2.5891593,3.5030207 2.5423875,3.4336146 2.509762,3.3564279 2.4771369,3.2792411 2.4593654,3.1935666 2.4593654,3.1044438 c 0,-0.089123 0.017771,-0.1747973 0.050397,-0.251984 0.013421,-0.031749 0.039,-0.055088 0.057116,-0.083995 C 2.5059422,2.6781465 2.425735,2.6068287 2.2443389,2.5668779 2.6743916,3.3194703 1.7314979,3.2354796 1.8210057,3.8906341 1.7053455,3.8586436 1.5989936,3.6429461 1.6866141,3.3765866 1.3839677,3.7504592 1.4917464,4.0720628 1.7067741,4.3946021 1.4917475,4.179576 1.4917471,4.2870912 1.3842344,3.9847081 1.4259597,4.7743154 2.0292768,5.3622207 3.1649218,5.3622207 l 0.080635,0 c 0.7117753,0 1.4157019,-0.5159994 1.4917453,-1.0314545 C 4.6372233,4.4789962 4.5023304,4.6095557 4.3038897,4.6096285 4.8248697,4.1795029 4.9329085,3.5343008 4.4685194,2.9162957 4.5028546,3.3192746 4.2856615,3.5347188 4.0955827,3.6722479 4.3931735,3.104666 4.3941392,2.4578391 3.81,1.8882009 3.856574,2.0277863 3.8924,2.1369489 3.860397,2.2644971 3.8924003,2.1082537 3.4275575,1.3848479 2.7583863,1.1154499 z"
     style="opacity:0;fill:#ececec;fill-opacity:1;fill-rule:nonzero;stroke:none"
     inkscape:connector-curvature="0" />
</svg>

<svg xmlns="http://www.w3.org/2000/svg" width="22" viewBox="0 0 6.208889 6.208889" height="22">
 <path d="m 11 3 c -4.418 0 -8 3.582 -8 8 c 0 3.163 1.836 5.889 4.5 7.188 c 0.127 0.062 0.244 0.132 0.375 0.188 c 0.217 0.095 0.447 0.175 0.688 0.25 c 0.019 0.006 0.044 -0.006 0.063 0 c 0.175 0.053 0.345 0.115 0.531 0.156 c 0.075 0.018 0.143 0.047 0.219 0.063 c 0.137 0.026 0.263 0.042 0.406 0.063 c 0.224 0.034 0.458 0.047 0.688 0.063 c 0.237 0.016 0.499 0.031 0.75 0.031 l 0.281 0 c 0.105 0 0.208 -0.025 0.313 -0.031 c 0.276 -0.016 0.542 -0.069 0.813 -0.125 c 0.433 -0.09 0.851 -0.231 1.25 -0.406 c 0.079 -0.03 0.172 -0.03 0.25 -0.063 c 0.032 -0.016 0.062 -0.046 0.094 -0.063 c 2.816 -1.239 4.781 -4.04 4.781 -7.313 c 0 -4.418 -3.582 -8 -8 -8 z m 0 1 c 3.866 0 7 3.134 7 7 c 0 2.112 -0.958 3.998 -2.438 5.281 c -0.099 0.021 -0.202 0.062 -0.313 0.063 c 1.846 -1.524 2.239 -3.81 0.594 -6 c 0.122 1.428 -0.67 2.169 -1.344 2.656 c 1.054 -2.01 1.07 -4.294 -1 -6.313 c 0.165 0.495 0.301 0.892 0.188 1.344 c 0.109 -0.533 -1.425 -2.94 -3.656 -3.969 c 0.317 -0.044 0.64 -0.063 0.969 -0.063 z m -1.125 0.094 c 1.496 2.556 0.06 3.052 -0.25 5.125 c 0.155 -0.12 0.286 -0.235 0.469 -0.313 c 0.273 -0.116 0.59 -0.188 0.906 -0.188 c 0.316 0 0.633 0.072 0.906 0.188 c 0.273 0.116 0.512 0.262 0.719 0.469 c 0.207 0.207 0.353 0.445 0.469 0.719 c 0.116 0.273 0.188 0.59 0.188 0.906 c 0 0.316 -0.072 0.633 -0.188 0.906 c -0.116 0.273 -0.262 0.512 -0.469 0.719 c -0.207 0.207 -0.445 0.353 -0.719 0.469 c -0.273 0.116 -0.59 0.188 -0.906 0.188 c -0.316 0 -0.633 -0.072 -0.906 -0.188 c -0.273 -0.116 -0.512 -0.262 -0.719 -0.469 c -0.207 -0.207 -0.353 -0.445 -0.469 -0.719 c -0.116 -0.273 -0.188 -0.59 -0.188 -0.906 c 0 -0.316 0.072 -0.633 0.188 -0.906 c 0.048 -0.112 0.123 -0.179 0.188 -0.281 c -0.216 -0.32 -0.514 -0.577 -1.156 -0.719 c 1.524 2.667 -1.817 2.366 -1.5 4.688 c -0.41 -0.113 -0.779 -0.869 -0.469 -1.813 c -1.072 1.325 -0.668 2.451 0.094 3.594 c -0.762 -0.762 -0.775 -0.366 -1.156 -1.438 c 0.008 0.153 0.043 0.289 0.063 0.438 c -0.618 -1.043 -0.969 -2.262 -0.969 -3.563 c 0 -3.482 2.545 -6.367 5.875 -6.906 z m 1.125 5.75 c -0.316 0 -0.606 0.137 -0.813 0.344 c -0.207 0.207 -0.344 0.497 -0.344 0.813 c 0 0.316 0.137 0.606 0.344 0.813 c 0.207 0.207 0.497 0.344 0.813 0.344 c 0.316 0 0.606 -0.137 0.813 -0.344 c 0.207 -0.207 0.344 -0.497 0.344 -0.813 c 0 -0.316 -0.137 -0.606 -0.344 -0.813 c -0.207 -0.207 -0.497 -0.344 -0.813 -0.344 z" transform="scale(0.28222223,0.28222223)" style="fill:#ececec;fill-opacity:1"/>
</svg>
